X:71
T:Scottish Hornpipe
S:Bernie Waugh
R:Reel
M:2/4
L:1/16
K:D
|:\
"D"D2DD D2FE|DFAF "A"B2A2|"Bm"BAFA BAFD|"G"EFED "A"B,2A,2|
"D"D2DD D2FE|DFAF "A"B2A2|"Bm"BAFA "G"Bcde|1"A"fdec "D"d4:|2\
"A"fdec"D" d2||
|:e2|\
"D(or F#!)"f2ff fgfe|"Bm"defd B2A2|"G"BdAd BdAF|"Em"EFED "A"E2FE|
"D"D2DD D2FE|DFAF "A"B2A2|"Bm"BAFA "G"Bcde|1"A"fdec "D"d2:|2\
"A"fdec "D"d4|]

